src/icons/android-download.svg

<svg xmlns="http://www.w3.org/2000/svg" width="512" height="512" viewBox="0 0 512 512">
    <path d="M378.5 217.1c-11.6-57.5-61.6-100.9-122.5-100.9-48.4 0-90 27.5-110.9 67.5-50 5-89.1 47.5-89.1 99.1 0 55 45 100 100 100h216.6c45.9 0 83.4-37.5 83.4-83.4 0-44.1-34.1-79.7-77.5-82.3zm-149.1 42.5v-63.4h53.4v63.4h56.6L256 342.8l-83.4-83.2h56.8z"/>
</svg>

<?xml version="1.0" encoding="UTF-8"?>
<svg width="512px" height="512px" viewBox="0 0 512 512" version="1.1" xmlns="http://www.w3.org/2000/svg" xmlns:xlink="http://www.w3.org/1999/xlink">
    <!-- Generator: Sketch 62 (91390) - https://sketch.com -->
    <title>android-download</title>
    <desc>Created with Sketch.</desc>
    <g id="android-download" stroke="none" stroke-width="1" fill="none" fill-rule="evenodd">
        <path d="M378.5,217.1 C366.9,159.6 316.9,116.2 256,116.2 C207.6,116.2 166,143.7 145.1,183.7 C95.1,188.7 56,231.2 56,282.8 C56,337.8 101,382.8 156,382.8 L372.6,382.8 C418.5,382.8 456,345.3 456,299.4 C456,255.3 421.9,219.7 378.5,217.1 Z M229.4,259.6 L229.4,196.2 L282.8,196.2 L282.8,259.6 L339.4,259.6 L256,342.8 L172.6,259.6 L229.4,259.6 L229.4,259.6 Z" id="Shape" fill="#000000" fill-rule="nonzero"></path>
    </g>
</svg>
